<?xml version="1.0" encoding="UTF-8"?>
<map version="1.10" tiledversion="1.10.2" orientation="orthogonal" renderorder="right-down" width="20" height="20" tilewidth="64" tileheight="64" infinite="0" nextlayerid="4" nextobjectid="1">
 <tileset firstgid="1" source="Tilesets/basic_tileset.tsx"/>
 <layer id="1" name="ground_layer" width="20" height="20">
  <data encoding="csv">
0,0,0,0,0,0,0,0,0,0,0,0,0,0,0,0,0,0,0,0,
0,0,0,0,0,0,0,0,0,0,0,0,0,0,0,0,0,0,0,0,
0,0,0,0,0,0,0,0,0,0,0,0,0,0,0,0,0,0,0,0,
0,0,0,0,0,0,0,0,0,0,0,0,0,0,0,0,0,0,0,0,
0,0,0,0,0,0,0,0,0,0,0,0,0,0,0,0,0,0,0,0,
0,0,0,0,0,0,0,0,0,0,0,0,0,0,0,0,0,0,0,0,
0,0,0,0,0,0,0,0,0,0,0,0,0,0,0,0,0,0,0,0,
0,0,0,0,0,0,0,0,0,0,0,0,0,0,0,0,0,0,0,0,
0,0,0,0,0,0,0,0,0,0,0,0,0,0,0,0,0,0,0,0,
0,0,0,0,0,0,0,0,0,0,0,0,0,0,0,0,0,0,0,0,
0,0,0,0,0,0,0,0,0,0,0,0,0,0,0,0,0,0,0,0,
0,0,0,0,0,0,0,0,0,0,0,0,0,0,0,0,0,0,0,0,
0,0,0,0,0,0,0,0,0,0,0,0,0,0,0,0,0,0,0,0,
0,0,0,0,0,0,0,0,0,0,0,0,0,0,0,0,0,0,0,0,
0,0,0,0,0,0,0,0,0,0,0,0,0,0,0,0,0,0,0,0,
0,0,0,0,0,0,0,0,0,0,0,0,0,0,0,0,0,0,0,0,
0,0,0,0,0,0,0,0,0,0,0,0,0,0,0,0,0,0,0,0,
0,0,0,0,0,0,0,0,0,0,0,0,0,0,0,0,0,0,0,0,
0,0,0,0,0,0,0,0,0,0,0,0,0,0,0,0,0,0,0,0,
0,0,0,0,0,0,0,0,0,0,0,0,0,0,0,0,0,0,0,0
</data>
 </layer>
 <layer id="2" name="water_layer" width="20" height="20">
  <data encoding="csv">
0,0,0,0,0,0,0,0,0,0,0,0,0,0,0,0,0,0,0,0,
0,0,0,0,0,0,0,0,0,0,0,0,0,0,0,0,0,0,0,0,
0,0,0,0,0,0,0,0,0,0,0,0,0,0,0,0,0,0,0,0,
0,0,0,0,0,0,0,0,0,0,0,0,0,0,0,0,0,0,0,0,
0,0,0,0,0,0,0,0,0,0,0,0,0,0,0,0,0,0,0,0,
0,0,0,0,0,0,0,0,0,0,0,0,0,0,0,0,0,0,0,0,
0,0,0,0,0,0,0,0,0,0,0,0,0,0,0,0,0,0,0,0,
0,0,0,0,0,0,0,0,0,0,0,0,0,0,0,0,0,0,0,0,
0,0,0,0,0,0,0,0,0,0,0,0,0,0,0,0,0,0,0,0,
0,0,0,0,0,0,0,0,0,0,0,0,0,0,0,0,0,0,0,0,
0,0,0,0,0,0,0,0,0,0,0,0,0,0,0,0,0,0,0,0,
0,0,0,0,0,0,0,0,0,0,0,0,0,0,0,0,0,0,0,0,
0,0,0,0,0,0,0,0,0,0,0,0,0,0,0,0,0,0,0,0,
0,0,0,0,0,0,0,0,0,0,0,0,0,0,0,0,0,0,0,0,
0,0,0,0,0,0,0,0,0,0,0,0,0,0,0,0,0,0,0,0,
0,0,0,0,0,0,0,0,0,0,0,0,0,0,0,0,0,0,0,0,
0,0,0,0,0,0,0,0,0,0,0,0,0,0,0,0,0,0,0,0,
0,0,0,0,0,0,0,0,0,0,0,0,0,0,0,0,0,0,0,0,
0,0,0,0,0,0,0,0,0,0,0,0,0,0,0,0,0,0,0,0,
0,0,0,0,0,0,0,0,0,0,0,0,0,0,0,0,0,0,0,0
</data>
 </layer>
 <layer id="3" name="collision_layer" width="20" height="20">
  <data encoding="csv">
3,3,3,3,3,3,3,3,3,3,3,3,3,3,3,3,3,3,3,3,
3,0,0,0,0,0,0,0,0,0,0,0,0,0,0,0,0,0,0,3,
3,0,0,0,0,0,0,0,0,0,0,0,0,0,0,0,0,0,0,3,
3,0,0,0,0,0,0,0,0,0,0,0,0,0,0,0,0,0,0,3,
3,0,0,0,0,0,0,0,0,0,0,0,0,0,0,0,0,0,0,3,
3,0,0,0,0,0,0,0,0,0,0,0,0,0,0,0,0,0,0,3,
3,0,0,0,0,0,0,0,0,0,0,0,0,0,0,0,0,0,0,3,
3,0,0,0,0,0,0,0,0,0,0,0,0,0,0,0,0,0,0,3,
3,0,0,0,0,0,0,0,0,0,0,0,0,0,0,0,0,0,0,3,
3,0,0,0,0,0,0,0,0,0,0,0,0,0,0,0,0,0,0,3,
3,0,0,0,0,0,0,0,0,0,0,0,0,0,0,0,0,0,0,3,
3,0,0,0,0,0,0,0,0,0,0,0,0,0,0,0,0,0,0,3,
3,0,0,0,0,0,0,0,0,0,0,0,0,0,0,0,0,0,0,3,
3,0,0,0,0,0,0,0,0,0,0,0,0,0,0,0,0,0,0,3,
3,0,0,0,0,0,0,0,0,0,0,0,0,0,0,0,0,0,0,3,
3,0,0,0,0,0,0,0,0,0,0,0,0,0,0,0,0,0,0,3,
3,0,0,0,0,0,0,0,0,0,0,0,0,0,0,0,0,0,0,3,
3,0,0,0,0,0,0,0,0,0,0,0,0,0,0,0,0,0,0,3,
3,0,0,0,0,0,0,0,0,0,0,0,0,0,0,0,0,0,0,3,
3,3,3,3,3,3,3,3,3,3,3,3,3,3,3,3,3,3,3,3
</data>
 </layer>
 <objectgroup id="4" name="spawn_points">
  <object id="1" name="player_spawn" x="640" y="640" width="64" height="64"/>
  <object id="2" name="enemy_spawn_1" x="200" y="200" width="64" height="64"/>
  <object id="3" name="enemy_spawn_2" x="800" y="200" width="64" height="64"/>
  <object id="4" name="enemy_spawn_3" x="200" y="1000" width="64" height="64"/>
  <object id="5" name="enemy_spawn_4" x="800" y="1000" width="64" height="64"/>
 </objectgroup>
</map>
